P3
# Created by GIMP version 3.0.6 PNM plug-in
64 64
255
50
33
32
50
33
32
50
33
32
50
33
32
50
33
32
50
33
32
50
33
32
50
33
32
63
35
34
50
33
32
63
35
34
63
35
34
63
35
34
63
35
34
63
35
34
63
35
34
76
37
36
63
35
34
76
37
36
76
37
36
63
35
34
76
37
36
76
37
36
76
37
36
76
37
36
76
37
36
76
37
36
76
37
36
76
37
36
76
37
36
76
37
36
76
37
36
76
37
36
76
37
36
86
39
39
76
37
36
76
37
36
76
37
36
76
37
36
76
37
36
76
37
36
76
37
36
76
37
36
76
37
36
63
35
34
76
37
36
63
35
34
63
35
34
63
35
34
63
35
34
63
35
34
63
35
34
63
35
34
63
35
34
50
33
32
63
35
34
50
33
32
50
33
32
50
33
32
50
33
32
50
33
32
50
33
32
50
33
32
50
33
32
50
33
32
50
33
32
50
33
32
50
33
32
50
33
32
50
33
32
50
33
32
50
33
32
63
35
34
50
33
32
63
35
34
63
35
34
63
35
34
63
35
34
63
35
34
63
35
34
76
37
36
63
35
34
76
37
36
76
37
36
76
37
36
76
37
36
76
37
36
76
37
36
76
37
36
76
37
36
76
37
36
76
37
36
86
39
39
86
39
39
86
39
39
86
39
39
76
37
36
86
39
39
76
37
36
86
39
39
76
37
36
76
37
36
76
37
36
76
37
36
76
37
36
76
37
36
76
37
36
76
37
36
76
37
36
76
37
36
76
37
36
76
37
36
76
37
36
63
35
34
63
35
34
63
35
34
63
35
34
63
35
34
50
33
32
63
35
34
50
33
32
50
33
32
50
33
32
50
33
32
50
33
32
50
33
32
50
33
32
50
33
32
50
33
32
50
33
32
50
33
32
50
33
32
50
33
32
50
33
32
63
35
34
63
35
34
63
35
34
63
35
34
63
35
34
63
35
34
63
35
34
76
37
36
63
35
34
76
37
36
76
37
36
76
37
36
76
37
36
76
37
36
76
37
36
76
37
36
76
37
36
86
39
39
76
37
36
86
39
39
86
39
39
86
39
39
76
37
36
86
39
39
76
37
36
86
39
39
86
39
39
86
39
39
86
39
39
86
39
39
86
39
39
86
39
39
76
37
36
86
39
39
76
37
36
76
37
36
76
37
36
76
37
36
76
37
36
76
37
36
76
37
36
63
35
34
63
35
34
76
37
36
63
35
34
76
37
36
63
35
34
63
35
34
63
35
34
63
35
34
50
33
32
63
35
34
50
33
32
50
33
32
50
33
32
50
33
32
50
33
32
50
33
32
50
33
32
50
33
32
50
33
32
50
33
32
50
33
32
50
33
32
50
33
32
50
33
32
63
35
34
63
35
34
63
35
34
63
35
34
76
37
36
63
35
34
76
37
36
63
35
34
76
37
36
76
37
36
76
37
36
76
37
36
76
37
36
86
39
39
76
37
36
86
39
39
86
39
39
76
37
36
86
39
39
86
39
39
86
39
39
86
39
39
86
39
39
86
39
39
76
37
36
86
39
39
86
39
39
86
39
39
76
37
36
86
39
39
86
39
39
86
39
39
86
39
39
76
37
36
86
39
39
76
37
36
76
37
36
76
37
36
76
37
36
76
37
36
76
37
36
63
35
34
76
37
36
63
35
34
63
35
34
63
35
34
63
35
34
63
35
34
63
35
34
50
33
32
50
33
32
50
33
32
50
33
32
50
33
32
50
33
32
50
33
32
50
33
32
50
33
32
50
33
32
50
33
32
63
35
34
63
35
34
63
35
34
63
35
34
63
35
34
63
35
34
63
35
34
76
37
36
63
35
34
76
37
36
76
37
36
76
37
36
76
37
36
76
37
36
86
39
39
76
37
36
86
39
39
86
39
39
86
39
39
86
39
39
86
39
39
86
39
39
86
39
39
86
39
39
86
39
39
86
39
39
86
39
39
99
41
41
86
39
39
86
39
39
86
39
39
86
39
39
99
41
41
86
39
39
86
39
39
86
39
39
86
39
39
86
39
39
76
37
36
86
39
39
86
39
39
76
37
36
76
37
36
76
37
36
76
37
36
76
37
36
76
37
36
63
35
34
76
37
36
63
35
34
63
35
34
63
35
34
63
35
34
63
35
34
63
35
34
50
33
32
50
33
32
50
33
32
50
33
32
50
33
32
50
33
32
50
33
32
50
33
32
50
33
32
50
33
32
63
35
34
63
35
34
63
35
34
63
35
34
63
35
34
63
35
34
76
37
36
63
35
34
76
37
36
76
37
36
76
37
36
76
37
36
76
37
36
86
39
39
76
37
36
86
39
39
86
39
39
86
39
39
86
39
39
86
39
39
99
41
41
86
39
39
99
41
41
86
39
39
99
41
41
86
39
39
99
41
41
86
39
39
99
41
41
86
39
39
86
39
39
99
41
41
86
39
39
86
39
39
86
39
39
86
39
39
86
39
39
86
39
39
86
39
39
86
39
39
86
39
39
86
39
39
76
37
36
76
37
36
76
37
36
76
37
36
76
37
36
63
35
34
76
37
36
63
35
34
63
35
34
63
35
34
63
35
34
63
35
34
63
35
34
50
33
32
50
33
32
50
33
32
50
33
32
50
33
32
50
33
32
63
35
34
63
35
34
50
33
32
63
35
34
63
35
34
63
35
34
76
37
36
63
35
34
76
37
36
76
37
36
76
37
36
76
37
36
76
37
36
76
37
36
76
37
36
86
39
39
86
39
39
86
39
39
86
39
39
86
39
39
99
41
41
86
39
39
99
41
41
86
39
39
86
39
39
99
41
41
99
41
41
86
39
39
99
41
41
86
39
39
99
41
41
99
41
41
99
41
41
99
41
41
86
39
39
99
41
41
86
39
39
99
41
41
99
41
41
86
39
39
86
39
39
86
39
39
86
39
39
86
39
39
86
39
39
76
37
36
86
39
39
86
39
39
76
37
36
76
37
36
76
37
36
63
35
34
76
37
36
63
35
34
63
35
34
63
35
34
63
35
34
63
35
34
50
33
32
50
33
32
50
33
32
50
33
32
63
35
34
50
33
32
50
33
32
63
35
34
63
35
34
63
35
34
63
35
34
63
35
34
63
35
34
76
37
36
63
35
34
76
37
36
76
37
36
76
37
36
86
39
39
76
37
36
86
39
39
86
39
39
86
39
39
86
39
39
86
39
39
99
41
41
86
39
39
99
41
41
86
39
39
99
41
41
99
41
41
86
39
39
99
41
41
86
39
39
99
41
41
99
41
41
99
41
41
86
39
39
99
41
41
86
39
39
99
41
41
86
39
39
99
41
41
86
39
39
99
41
41
86
39
39
99
41
41
86
39
39
99
41
41
86
39
39
86
39
39
86
39
39
86
39
39
76
37
36
86
39
39
76
37
36
76
37
36
76
37
36
76
37
36
76
37
36
76
37
36
63
35
34
63
35
34
63
35
34
63
35
34
50
33
32
63
35
34
50
33
32
50
33
32
63
35
34
63
35
34
63
35
34
63
35
34
63
35
34
63
35
34
76
37
36
76
37
36
76
37
36
76
37
36
76
37
36
76
37
36
86
39
39
76
37
36
86
39
39
86
39
39
86
39
39
86
39
39
99
41
41
86
39
39
99
41
41
99
41
41
99
41
41
99
41
41
86
39
39
99
41
41
99
41
41
99
41
41
99
41
41
99
41
41
99
41
41
99
41
41
99
41
41
99
41
41
99
41
41
99
41
41
99
41
41
99
41
41
99
41
41
99
41
41
86
39
39
86
39
39
99
41
41
86
39
39
86
39
39
86
39
39
86
39
39
86
39
39
86
39
39
86
39
39
63
35
34
86
39
39
63
35
34
76
37
36
63
35
34
76
37
36
63
35
34
63
35
34
63
35
34
63
35
34
63
35
34
63
35
34
50
33
32
50
33
32
50
33
32
63
35
34
63
35
34
63
35
34
76
37
36
63
35
34
63
35
34
76
37
36
76
37
36
76
37
36
76
37
36
86
39
39
76
37
36
86
39
39
86
39
39
86
39
39
99
41
41
86
39
39
99
41
41
99
41
41
99
41
41
99
41
41
99
41
41
99
41
41
99
41
41
99
41
41
99
41
41
99
41
41
99
41
41
99
41
41
99
41
41
99
41
41
110
44
42
99
41
41
110
44
42
99
41
41
99
41
41
99
41
41
99
41
41
99
41
41
99
41
41
76
37
36
99
41
41
99
41
41
86
39
39
99
41
41
86
39
39
86
39
39
86
39
39
86
39
39
76
37
36
76
37
36
102
49
76
63
35
34
86
39
39
63
35
34
76
37
36
63
35
34
63
35
34
63
35
34
63
35
34
63
35
34
50
33
32
63
35
34
63
35
34
63
35
34
63
35
34
63
35
34
63
35
34
76
37
36
76
37
36
76
37
36
76
37
36
76
37
36
86
39
39
86
39
39
86
39
39
86
39
39
86
39
39
86
39
39
99
41
41
86
39
39
99
41
41
99
41
41
99
41
41
99
41
41
99
41
41
110
44
42
99
41
41
110
44
42
99
41
41
110
44
42
110
44
42
99
41
41
110
44
42
99
41
41
110
44
42
99
41
41
99
41
41
110
44
42
110
44
42
99
41
41
99
41
41
99
41
41
99
41
41
99
41
41
99
41
41
99
41
41
76
37
36
99
41
41
86
39
39
86
39
39
86
39
39
86
39
39
86
39
39
86
39
39
76
37
36
76
37
36
76
37
36
63
35
34
76
37
36
63
35
34
63
35
34
63
35
34
63
35
34
63
35
34
63
35
34
63
35
34
63
35
34
63
35
34
63
35
34
76
37
36
63
35
34
76
37
36
63
35
34
86
39
39
76
37
36
76
37
36
86
39
39
86
39
39
86
39
39
86
39
39
99
41
41
86
39
39
99
41
41
99
41
41
99
41
41
99
41
41
99
41
41
110
44
42
99
41
41
99
41
41
99
41
41
110
44
42
99
41
41
110
44
42
110
44
42
110
44
42
110
44
42
110
44
42
110
44
42
110
44
42
110
44
42
99
41
41
110
44
42
99
41
41
110
44
42
99
41
41
99
41
41
131
47
45
146
52
33
131
47
45
146
52
33
131
47
45
99
41
41
131
47
45
146
52
33
131
47
45
131
47
45
118
44
46
86
39
39
76
37
36
76
37
36
86
39
39
63
35
34
76
37
36
76
37
36
63
35
34
63
35
34
63
35
34
63
35
34
63
35
34
63
35
34
63
35
34
76
37
36
63
35
34
76
37
36
76
37
36
86
39
39
76
37
36
86
39
39
86
39
39
86
39
39
86
39
39
99
41
41
86
39
39
99
41
41
99
41
41
99
41
41
99
41
41
99
41
41
99
41
41
110
44
42
99
41
41
110
44
42
110
44
42
99
41
41
118
44
46
99
41
41
110
44
42
110
44
42
110
44
42
110
44
42
110
44
42
110
44
42
110
44
42
110
44
42
110
44
42
110
44
42
99
41
41
99
41
41
110
44
42
146
52
33
210
53
33
210
53
33
210
53
33
210
53
33
146
52
33
210
53
33
210
53
33
210
53
33
210
53
33
210
53
33
146
52
33
99
41
41
86
39
39
86
39
39
63
35
34
86
39
39
63
35
34
63
35
34
76
37
36
63
35
34
63
35
34
63
35
34
63
35
34
63
35
34
63
35
34
76
37
36
63
35
34
76
37
36
76
37
36
76
37
36
86
39
39
76
37
36
86
39
39
86
39
39
86
39
39
86
39
39
99
41
41
86
39
39
99
41
41
99
41
41
99
41
41
99
41
41
110
44
42
99
41
41
118
44
46
99
41
41
118
44
46
110
44
42
110
44
42
118
44
46
110
44
42
110
44
42
110
44
42
110
44
42
110
44
42
118
44
46
110
44
42
118
44
46
118
44
46
118
44
46
118
44
46
110
44
42
131
47
45
210
53
33
210
53
33
210
53
33
210
53
33
210
53
33
146
52
33
210
53
33
210
53
33
210
53
33
210
53
33
210
53
33
99
41
41
76
37
36
102
49
76
86
39
39
76
37
36
86
39
39
76
37
36
63
35
34
76
37
36
63
35
34
63
35
34
63
35
34
63
35
34
76
37
36
63
35
34
76
37
36
76
37
36
76
37
36
76
37
36
76
37
36
76
37
36
86
39
39
86
39
39
86
39
39
99
41
41
99
41
41
86
39
39
99
41
41
99
41
41
99
41
41
99
41
41
110
44
42
99
41
41
118
44
46
110
44
42
118
44
46
99
41
41
118
44
46
118
44
46
118
44
46
118
44
46
118
44
46
118
44
46
118
44
46
118
44
46
118
44
46
118
44
46
118
44
46
99
41
41
118
44
46
110
44
42
118
44
46
146
52
33
210
53
33
210
53
33
210
53
33
210
53
33
146
52
33
210
53
33
210
53
33
210
53
33
210
53
33
210
53
33
131
47
45
76
37
36
99
41
41
76
37
36
76
37
36
76
37
36
76
37
36
76
37
36
76
37
36
63
35
34
63
35
34
76
37
36
63
35
34
63
35
34
63
35
34
76
37
36
63
35
34
76
37
36
76
37
36
86
39
39
76
37
36
86
39
39
86
39
39
86
39
39
86
39
39
86
39
39
99
41
41
99
41
41
99
41
41
99
41
41
99
41
41
110
44
42
99
41
41
118
44
46
99
41
41
110
44
42
118
44
46
118
44
46
110
44
42
118
44
46
118
44
46
118
44
46
118
44
46
118
44
46
118
44
46
118
44
46
118
44
46
118
44
46
118
44
46
118
44
46
118
44
46
86
39
39
210
53
33
210
53
33
210
53
33
210
53
33
210
53
33
146
52
33
210
53
33
210
53
33
210
53
33
210
53
33
210
53
33
146
52
33
99
41
41
76
37
36
99
41
41
86
39
39
86
39
39
86
39
39
76
37
36
86
39
39
76
37
36
76
37
36
63
35
34
63
35
34
63
35
34
63
35
34
76
37
36
76
37
36
76
37
36
76
37
36
76
37
36
76
37
36
86
39
39
86
39
39
86
39
39
99
41
41
99
41
41
99
41
41
99
41
41
99
41
41
99
41
41
110
44
42
99
41
41
118
44
46
99
41
41
118
44
46
118
44
46
118
44
46
118
44
46
118
44
46
118
44
46
118
44
46
118
44
46
131
47
45
118
44
46
131
47
45
118
44
46
131
47
45
118
44
46
118
44
46
131
47
45
118
44
46
118
44
46
131
47
45
210
53
33
226
101
42
210
53
33
210
53
33
210
53
33
146
52
33
210
53
33
210
53
33
210
53
33
210
53
33
210
53
33
131
47
45
99
41
41
86
39
39
86
39
39
99
41
41
86
39
39
86
39
39
86
39
39
76
37
36
76
37
36
76
37
36
76
37
36
76
37
36
63
35
34
63
35
34
63
35
34
63
35
34
76
37
36
76
37
36
76
37
36
86
39
39
86
39
39
86
39
39
86
39
39
86
39
39
99
41
41
99
41
41
99
41
41
99
41
41
99
41
41
110
44
42
99
41
41
99
41
41
118
44
46
110
44
42
118
44
46
118
44
46
118
44
46
110
44
42
131
47
45
118
44
46
118
44
46
131
47
45
118
44
46
131
47
45
118
44
46
131
47
45
131
47
45
118
44
46
131
47
45
118
44
46
131
47
45
146
52
33
226
101
42
226
101
42
226
101
42
226
101
42
146
52
33
226
101
42
226
101
42
226
101
42
226
101
42
226
101
42
118
44
46
99
41
41
110
44
42
110
44
42
86
39
39
86
39
39
86
39
39
86
39
39
86
39
39
76
37
36
86
39
39
76
37
36
63
35
34
76
37
36
76
37
36
76
37
36
76
37
36
76
37
36
86
39
39
76
37
36
76
37
36
86
39
39
86
39
39
86
39
39
99
41
41
99
41
41
99
41
41
99
41
41
99
41
41
110
44
42
99
41
41
110
44
42
118
44
46
118
44
46
118
44
46
118
44
46
118
44
46
118
44
46
131
47
45
131
47
45
118
44
46
131
47
45
131
47
45
131
47
45
131
47
45
131
47
45
131
47
45
118
44
46
131
47
45
131
47
45
131
47
45
131
47
45
146
52
33
223
140
66
226
101
42
226
101
42
226
101
42
146
52
33
223
140
66
226
101
42
226
101
42
226
101
42
226
101
42
146
52
33
110
44
42
99
41
41
99
41
41
99
41
41
86
39
39
99
41
41
86
39
39
86
39
39
86
39
39
86
39
39
76
37
36
76
37
36
76
37
36
76
37
36
63
35
34
63
35
34
76
37
36
76
37
36
76
37
36
86
39
39
76
37
36
76
37
36
86
39
39
86
39
39
86
39
39
99
41
41
99
41
41
99
41
41
99
41
41
99
41
41
99
41
41
99
41
41
110
44
42
99
41
41
118
44
46
118
44
46
118
44
46
118
44
46
118
44
46
131
47
45
131
47
45
118
44
46
131
47
45
131
47
45
131
47
45
131
47
45
131
47
45
131
47
45
131
47
45
118
44
46
131
47
45
131
47
45
223
140
66
223
140
66
223
140
66
223
140
66
223
140
66
131
47
45
223
140
66
223
140
66
226
101
42
226
101
42
226
101
42
131
47
45
99
41
41
99
41
41
99
41
41
99
41
41
99
41
41
99
41
41
99
41
41
86
39
39
86
39
39
86
39
39
86
39
39
76
37
36
76
37
36
76
37
36
76
37
36
76
37
36
76
37
36
76
37
36
76
37
36
86
39
39
86
39
39
86
39
39
99
41
41
86
39
39
99
41
41
99
41
41
99
41
41
110
44
42
110
44
42
110
44
42
118
44
46
118
44
46
118
44
46
118
44
46
118
44
46
118
44
46
131
47
45
118
44
46
131
47
45
131
47
45
118
44
46
131
47
45
131
47
45
131
47
45
131
47
45
131
47
45
131
47
45
131
47
45
131
47
45
118
44
46
131
47
45
223
140
66
223
140
66
223
140
66
223
140
66
223
140
66
133
86
79
223
140
66
223
140
66
223
140
66
223
140
66
223
140
66
99
41
41
76
37
36
110
44
42
110
44
42
99
41
41
99
41
41
99
41
41
99
41
41
86
39
39
86
39
39
86
39
39
86
39
39
76
37
36
76
37
36
76
37
36
76
37
36
63
35
34
63
35
34
76
37
36
76
37
36
76
37
36
76
37
36
86
39
39
86
39
39
86
39
39
99
41
41
99
41
41
99
41
41
99
41
41
99
41
41
118
44
46
99
41
41
99
41
41
118
44
46
118
44
46
118
44
46
118
44
46
118
44
46
131
47
45
118
44
46
131
47
45
131
47
45
131
47
45
131
47
45
131
47
45
131
47
45
131
47
45
131
47
45
131
47
45
131
47
45
131
47
45
118
44
46
146
52
33
217
165
87
217
165
87
217
165
87
217
165
87
146
52
33
217
165
87
223
140
66
217
165
87
223
140
66
223
140
66
146
52
33
110
44
42
110
44
42
118
44
46
110
44
42
110
44
42
99
41
41
99
41
41
99
41
41
99
41
41
86
39
39
86
39
39
86
39
39
86
39
39
76
37
36
76
37
36
76
37
36
76
37
36
76
37
36
76
37
36
76
37
36
86
39
39
86
39
39
86
39
39
86
39
39
86
39
39
99
41
41
99
41
41
99
41
41
110
44
42
99
41
41
99
41
41
118
44
46
118
44
46
99
41
41
118
44
46
118
44
46
131
47
45
118
44
46
118
44
46
131
47
45
131
47
45
131
47
45
131
47
45
131
47
45
131
47
45
131
47
45
131
47
45
131
47
45
131
47
45
131
47
45
131
47
45
131
47
45
217
165
87
217
165
87
237
208
109
217
165
87
217
165
87
124
106
45
217
165
87
237
208
109
217
165
87
237
208
109
223
140
66
124
106
45
118
44
46
118
44
46
99
41
41
99
41
41
118
44
46
99
41
41
99
41
41
99
41
41
99
41
41
86
39
39
86
39
39
86
39
39
86
39
39
86
39
39
63
35
34
76
37
36
76
37
36
76
37
36
76
37
36
76
37
36
86
39
39
86
39
39
86
39
39
99
41
41
86
39
39
99
41
41
99
41
41
99
41
41
99
41
41
118
44
46
99
41
41
110
44
42
102
49
76
102
49
76
102
49
76
102
49
76
102
49
76
131
47
45
102
49
76
102
49
76
102
49
76
102
49
76
102
49
76
131
47
45
131
47
45
131
47
45
131
47
45
146
52
33
131
47
45
131
47
45
118
44
46
223
140
66
237
208
109
237
208
109
237
208
109
217
165
87
223
140
66
217
165
87
217
165
87
237
208
109
237
208
109
217
165
87
131
47
45
118
44
46
118
44
46
118
44
46
118
44
46
110
44
42
110
44
42
110
44
42
99
41
41
99
41
41
99
41
41
99
41
41
99
41
41
86
39
39
86
39
39
86
39
39
76
37
36
76
37
36
76
37
36
76
37
36
76
37
36
86
39
39
86
39
39
86
39
39
86
39
39
86
39
39
99
41
41
99
41
41
99
41
41
99
41
41
110
44
42
99
41
41
99
41
41
102
49
76
74
86
128
43
95
221
43
95
221
43
95
221
43
95
221
74
86
128
49
110
211
43
95
221
43
95
221
49
110
211
43
95
221
102
49
76
131
47
45
146
52
33
131
47
45
131
47
45
146
52
33
131
47
45
146
52
33
237
208
109
237
208
109
237
208
109
237
208
109
217
165
87
124
106
45
237
208
109
237
208
109
237
208
109
237
208
109
223
140
66
99
41
41
118
44
46
118
44
46
118
44
46
110
44
42
99
41
41
118
44
46
99
41
41
110
44
42
99
41
41
99
41
41
99
41
41
86
39
39
86
39
39
86
39
39
86
39
39
86
39
39
76
37
36
76
37
36
76
37
36
76
37
36
76
37
36
86
39
39
86
39
39
86
39
39
86
39
39
86
39
39
99
41
41
99
41
41
99
41
41
99
41
41
118
44
46
99
41
41
118
44
46
102
49
76
55
143
228
49
110
211
49
110
211
49
110
211
49
110
211
76
37
36
49
110
211
55
143
228
49
110
211
49
110
211
49
110
211
131
47
45
131
47
45
146
52
33
131
47
45
146
52
33
133
86
79
217
165
87
237
208
109
237
208
109
237
208
109
237
208
109
124
100
97
237
208
109
237
208
109
237
208
109
237
208
109
217
165
87
110
44
42
118
44
46
118
44
46
118
44
46
118
44
46
118
44
46
110
44
42
110
44
42
110
44
42
99
41
41
99
41
41
99
41
41
99
41
41
99
41
41
86
39
39
86
39
39
86
39
39
76
37
36
76
37
36
76
37
36
76
37
36
76
37
36
76
37
36
86
39
39
86
39
39
99
41
41
86
39
39
99
41
41
99
41
41
99
41
41
99
41
41
110
44
42
99
41
41
110
44
42
110
44
42
110
44
42
74
86
128
55
143
228
55
143
228
76
167
215
55
143
228
74
86
128
74
86
128
55
143
228
76
167
215
76
167
215
55
143
228
124
100
97
102
49
76
131
47
45
146
52
33
146
52
33
217
165
87
213
211
54
237
208
109
237
208
109
237
208
109
168
148
146
237
208
109
237
208
109
237
208
109
237
208
109
237
208
109
124
106
45
118
44
46
131
47
45
118
44
46
131
47
45
118
44
46
118
44
46
118
44
46
99
41
41
99
41
41
110
44
42
99
41
41
99
41
41
86
39
39
99
41
41
86
39
39
86
39
39
86
39
39
76
37
36
76
37
36
76
37
36
76
37
36
86
39
39
76
37
36
86
39
39
76
37
36
99
41
41
86
39
39
99
41
41
99
41
41
99
41
41
99
41
41
118
44
46
110
44
42
118
44
46
110
44
42
131
47
45
118
44
46
76
167
215
76
167
215
76
167
215
76
167
215
102
186
181
133
86
79
76
167
215
76
167
215
76
167
215
76
167
215
76
167
215
133
86
79
131
47
45
146
52
33
146
52
33
213
211
54
213
211
54
213
211
54
213
211
54
162
151
53
162
151
53
237
208
109
213
211
54
213
211
54
237
208
109
124
106
45
118
44
46
131
47
45
131
47
45
131
47
45
118
44
46
118
44
46
118
44
46
118
44
46
118
44
46
118
44
46
99
41
41
99
41
41
99
41
41
99
41
41
99
41
41
86
39
39
86
39
39
86
39
39
86
39
39
76
37
36
76
37
36
76
37
36
76
37
36
86
39
39
86
39
39
86
39
39
86
39
39
99
41
41
99
41
41
99
41
41
99
41
41
110
44
42
110
44
42
110
44
42
118
44
46
110
44
42
118
44
46
118
44
46
76
37
36
102
186
181
76
167
215
102
186
181
102
186
181
76
167
215
124
106
45
102
186
181
102
186
181
102
186
181
102
186
181
168
148
146
102
49
76
131
47
45
237
208
109
213
211
54
213
211
54
213
211
54
213
211
54
146
52
33
213
211
54
213
211
54
213
211
54
213
211
54
213
211
54
146
52
33
131
47
45
131
47
45
131
47
45
131
47
45
118
44
46
118
44
46
118
44
46
110
44
42
99
41
41
99
41
41
110
44
42
99
41
41
99
41
41
99
41
41
86
39
39
86
39
39
86
39
39
86
39
39
86
39
39
86
39
39
76
37
36
76
37
36
76
37
36
86
39
39
86
39
39
86
39
39
86
39
39
86
39
39
99
41
41
99
41
41
99
41
41
99
41
41
110
44
42
110
44
42
118
44
46
110
44
42
131
47
45
118
44
46
110
44
42
102
186
181
102
186
181
102
186
181
102
186
181
102
186
181
168
148
146
76
167
215
102
186
181
102
186
181
102
186
181
102
186
181
168
148
146
162
151
53
213
211
54
213
211
54
213
211
54
213
211
54
162
151
53
162
151
53
213
211
54
213
211
54
213
211
54
213
211
54
146
52
33
131
47
45
131
47
45
131
47
45
131
47
45
131
47
45
131
47
45
118
44
46
118
44
46
118
44
46
118
44
46
118
44
46
110
44
42
99
41
41
99
41
41
99
41
41
99
41
41
99
41
41
86
39
39
86
39
39
76
37
36
86
39
39
76
37
36
76
37
36
86
39
39
76
37
36
86
39
39
86
39
39
99
41
41
99
41
41
99
41
41
99
41
41
110
44
42
99
41
41
118
44
46
110
44
42
118
44
46
118
44
46
118
44
46
118
44
46
131
47
45
118
44
46
102
186
181
102
186
181
102
186
181
102
186
181
102
186
181
124
100
97
102
186
181
102
186
181
102
186
181
102
186
181
69
160
107
164
204
44
213
211
54
164
204
44
213
211
54
162
151
53
162
151
53
164
204
44
213
211
54
164
204
44
164
204
44
162
151
53
118
44
46
131
47
45
131
47
45
131
47
45
131
47
45
118
44
46
131
47
45
118
44
46
118
44
46
110
44
42
99
41
41
110
44
42
99
41
41
110
44
42
99
41
41
99
41
41
86
39
39
86
39
39
86
39
39
86
39
39
86
39
39
76
37
36
76
37
36
76
37
36
76
37
36
86
39
39
86
39
39
86
39
39
86
39
39
86
39
39
99
41
41
99
41
41
99
41
41
110
44
42
110
44
42
110
44
42
110
44
42
118
44
46
118
44
46
118
44
46
131
47
45
99
41
41
124
100
97
102
186
181
102
186
181
102
186
181
69
160
107
102
186
181
124
100
97
102
186
181
69
160
107
102
186
181
164
204
44
164
204
44
164
204
44
164
204
44
164
204
44
110
44
42
213
211
54
164
204
44
164
204
44
164
204
44
162
151
53
131
47
45
131
47
45
131
47
45
131
47
45
118
44
46
131
47
45
131
47
45
118
44
46
118
44
46
118
44
46
118
44
46
118
44
46
110
44
42
110
44
42
99
41
41
99
41
41
99
41
41
99
41
41
99
41
41
86
39
39
86
39
39
86
39
39
86
39
39
76
37
36
76
37
36
86
39
39
76
37
36
86
39
39
86
39
39
99
41
41
99
41
41
99
41
41
99
41
41
99
41
41
110
44
42
110
44
42
110
44
42
118
44
46
118
44
46
118
44
46
131
47
45
118
44
46
131
47
45
118
44
46
71
128
49
69
160
107
71
128
49
69
160
107
69
160
107
124
106
45
124
100
97
69
160
107
121
198
39
121
198
39
164
204
44
164
204
44
164
204
44
162
151
53
162
151
53
121
198
39
164
204
44
164
204
44
164
204
44
124
106
45
146
52
33
131
47
45
131
47
45
131
47
45
131
47
45
131
47
45
118
44
46
131
47
45
118
44
46
118
44
46
110
44
42
110
44
42
99
41
41
110
44
42
99
41
41
110
44
42
99
41
41
99
41
41
86
39
39
86
39
39
86
39
39
76
37
36
76
37
36
76
37
36
76
37
36
76
37
36
86
39
39
86
39
39
86
39
39
86
39
39
86
39
39
99
41
41
99
41
41
99
41
41
99
41
41
110
44
42
110
44
42
118
44
46
118
44
46
118
44
46
131
47
45
118
44
46
131
47
45
131
47
45
118
44
46
71
128
49
69
160
107
71
128
49
69
160
107
71
128
49
124
100
97
71
128
49
121
198
39
121
198
39
164
204
44
121
198
39
162
151
53
124
106
45
164
204
44
164
204
44
121
198
39
164
204
44
124
106
45
146
52
33
131
47
45
131
47
45
131
47
45
131
47
45
131
47
45
131
47
45
118
44
46
131
47
45
118
44
46
118
44
46
118
44
46
118
44
46
110
44
42
110
44
42
99
41
41
99
41
41
99
41
41
86
39
39
99
41
41
86
39
39
86
39
39
86
39
39
86
39
39
76
37
36
76
37
36
86
39
39
86
39
39
86
39
39
86
39
39
99
41
41
99
41
41
99
41
41
99
41
41
110
44
42
99
41
41
110
44
42
118
44
46
110
44
42
118
44
46
118
44
46
118
44
46
131
47
45
118
44
46
131
47
45
131
47
45
110
44
42
71
128
49
71
128
49
71
128
49
71
128
49
71
128
49
121
198
39
164
204
44
121
198
39
121
198
39
121
198
39
71
128
49
121
198
39
121
198
39
121
198
39
121
198
39
164
204
44
131
47
45
131
47
45
146
52
33
131
47
45
131
47
45
131
47
45
131
47
45
131
47
45
131
47
45
118
44
46
118
44
46
118
44
46
110
44
42
110
44
42
99
41
41
99
41
41
110
44
42
99
41
41
99
41
41
99
41
41
86
39
39
86
39
39
86
39
39
86
39
39
76
37
36
76
37
36
76
37
36
76
37
36
76
37
36
86
39
39
86
39
39
86
39
39
99
41
41
86
39
39
99
41
41
110
44
42
99
41
41
110
44
42
110
44
42
118
44
46
118
44
46
110
44
42
131
47
45
131
47
45
131
47
45
131
47
45
131
47
45
99
41
41
124
106
45
71
128
49
71
128
49
71
128
49
121
198
39
121
198
39
121
198
39
121
198
39
121
198
39
121
198
39
121
198
39
121
198
39
121
198
39
121
198
39
164
204
44
131
47
45
146
52
33
131
47
45
131
47
45
131
47
45
131
47
45
131
47
45
131
47
45
131
47
45
131
47
45
118
44
46
118
44
46
118
44
46
118
44
46
118
44
46
118
44
46
99
41
41
110
44
42
99
41
41
99
41
41
99
41
41
99
41
41
86
39
39
86
39
39
76
37
36
86
39
39
76
37
36
76
37
36
76
37
36
86
39
39
86
39
39
86
39
39
86
39
39
99
41
41
86
39
39
99
41
41
99
41
41
110
44
42
110
44
42
110
44
42
110
44
42
118
44
46
118
44
46
118
44
46
118
44
46
131
47
45
131
47
45
131
47
45
118
44
46
118
44
46
71
128
49
71
128
49
71
128
49
121
198
39
121
198
39
121
198
39
121
198
39
121
198
39
71
128
49
121
198
39
121
198
39
121
198
39
121
198
39
124
106
45
131
47
45
131
47
45
146
52
33
131
47
45
131
47
45
131
47
45
131
47
45
131
47
45
131
47
45
118
44
46
118
44
46
118
44
46
110
44
42
110
44
42
110
44
42
110
44
42
99
41
41
110
44
42
99
41
41
99
41
41
99
41
41
86
39
39
86
39
39
86
39
39
76
37
36
76
37
36
76
37
36
76
37
36
76
37
36
76
37
36
86
39
39
86
39
39
86
39
39
86
39
39
99
41
41
99
41
41
99
41
41
99
41
41
99
41
41
110
44
42
110
44
42
118
44
46
118
44
46
118
44
46
118
44
46
131
47
45
131
47
45
131
47
45
131
47
45
131
47
45
99
41
41
71
128
49
121
198
39
121
198
39
121
198
39
121
198
39
121
198
39
71
128
49
121
198
39
121
198
39
121
198
39
121
198
39
162
151
53
131
47
45
146
52
33
131
47
45
131
47
45
131
47
45
131
47
45
131
47
45
131
47
45
131
47
45
131
47
45
131
47
45
118
44
46
118
44
46
118
44
46
110
44
42
110
44
42
110
44
42
110
44
42
99
41
41
99
41
41
99
41
41
86
39
39
99
41
41
86
39
39
86
39
39
86
39
39
76
37
36
76
37
36
76
37
36
76
37
36
86
39
39
76
37
36
86
39
39
86
39
39
99
41
41
86
39
39
99
41
41
99
41
41
110
44
42
99
41
41
110
44
42
110
44
42
118
44
46
118
44
46
118
44
46
131
47
45
118
44
46
131
47
45
118
44
46
131
47
45
131
47
45
131
47
45
118
44
46
124
106
45
71
128
49
162
151
53
71
128
49
124
106
45
99
41
41
124
106
45
71
128
49
71
128
49
162
151
53
133
86
79
131
47
45
131
47
45
131
47
45
146
52
33
131
47
45
131
47
45
131
47
45
131
47
45
131
47
45
118
44
46
118
44
46
118
44
46
118
44
46
110
44
42
118
44
46
99
41
41
110
44
42
99
41
41
99
41
41
99
41
41
99
41
41
99
41
41
86
39
39
86
39
39
76
37
36
76
37
36
76
37
36
76
37
36
76
37
36
76
37
36
76
37
36
86
39
39
86
39
39
86
39
39
86
39
39
86
39
39
99
41
41
99
41
41
110
44
42
99
41
41
110
44
42
110
44
42
110
44
42
118
44
46
118
44
46
118
44
46
131
47
45
118
44
46
131
47
45
131
47
45
131
47
45
131
47
45
118
44
46
131
47
45
118
44
46
131
47
45
131
47
45
131
47
45
131
47
45
131
47
45
131
47
45
131
47
45
146
52
33
146
52
33
131
47
45
131
47
45
131
47
45
131
47
45
131
47
45
131
47
45
131
47
45
131
47
45
131
47
45
131
47
45
118
44
46
118
44
46
118
44
46
118
44
46
110
44
42
99
41
41
110
44
42
99
41
41
99
41
41
99
41
41
99
41
41
99
41
41
86
39
39
86
39
39
86
39
39
86
39
39
76
37
36
76
37
36
76
37
36
76
37
36
86
39
39
86
39
39
76
37
36
99
41
41
86
39
39
99
41
41
99
41
41
99
41
41
99
41
41
110
44
42
99
41
41
118
44
46
110
44
42
118
44
46
118
44
46
118
44
46
118
44
46
131
47
45
131
47
45
131
47
45
131
47
45
131
47
45
131
47
45
131
47
45
131
47
45
131
47
45
146
52
33
131
47
45
131
47
45
146
52
33
131
47
45
131
47
45
131
47
45
146
52
33
131
47
45
131
47
45
146
52
33
131
47
45
131
47
45
131
47
45
131
47
45
131
47
45
131
47
45
118
44
46
118
44
46
118
44
46
118
44
46
110
44
42
110
44
42
110
44
42
99
41
41
99
41
41
99
41
41
99
41
41
86
39
39
86
39
39
99
41
41
86
39
39
76
37
36
76
37
36
76
37
36
76
37
36
76
37
36
76
37
36
76
37
36
86
39
39
76
37
36
86
39
39
86
39
39
76
37
36
99
41
41
99
41
41
99
41
41
99
41
41
99
41
41
110
44
42
118
44
46
110
44
42
118
44
46
131
47
45
118
44
46
118
44
46
131
47
45
131
47
45
131
47
45
131
47
45
131
47
45
131
47
45
131
47
45
131
47
45
131
47
45
131
47
45
131
47
45
131
47
45
131
47
45
146
52
33
131
47
45
131
47
45
131
47
45
131
47
45
131
47
45
131
47
45
131
47
45
131
47
45
131
47
45
131
47
45
118
44
46
131
47
45
118
44
46
110
44
42
118
44
46
99
41
41
110
44
42
110
44
42
99
41
41
99
41
41
99
41
41
99
41
41
86
39
39
86
39
39
86
39
39
86
39
39
76
37
36
76
37
36
76
37
36
76
37
36
76
37
36
76
37
36
76
37
36
86
39
39
86
39
39
86
39
39
86
39
39
99
41
41
86
39
39
99
41
41
99
41
41
110
44
42
99
41
41
110
44
42
99
41
41
118
44
46
118
44
46
118
44
46
99
41
41
118
44
46
118
44
46
131
47
45
118
44
46
118
44
46
118
44
46
131
47
45
131
47
45
131
47
45
131
47
45
131
47
45
131
47
45
131
47
45
131
47
45
131
47
45
131
47
45
131
47
45
131
47
45
131
47
45
131
47
45
131
47
45
131
47
45
118
44
46
133
86
79
99
41
41
99
41
41
110
44
42
118
44
46
118
44
46
118
44
46
118
44
46
99
41
41
99
41
41
99
41
41
99
41
41
99
41
41
86
39
39
99
41
41
86
39
39
86
39
39
76
37
36
86
39
39
76
37
36
76
37
36
76
37
36
76
37
36
63
35
34
76
37
36
76
37
36
86
39
39
86
39
39
86
39
39
86
39
39
99
41
41
86
39
39
99
41
41
99
41
41
99
41
41
99
41
41
110
44
42
110
44
42
118
44
46
99
41
41
124
100
97
133
86
79
118
44
46
131
47
45
118
44
46
168
148
146
168
148
146
133
86
79
131
47
45
131
47
45
131
47
45
168
148
146
168
148
146
133
86
79
131
47
45
133
86
79
168
148
146
168
148
146
131
47
45
131
47
45
118
44
46
133
86
79
168
148
146
124
100
97
133
86
79
124
100
97
168
148
146
86
39
39
110
44
42
118
44
46
118
44
46
99
41
41
124
100
97
124
100
97
86
39
39
99
41
41
99
41
41
86
39
39
86
39
39
99
41
41
86
39
39
76
37
36
76
37
36
76
37
36
76
37
36
76
37
36
63
35
34
76
37
36
76
37
36
76
37
36
76
37
36
86
39
39
86
39
39
86
39
39
99
41
41
99
41
41
99
41
41
99
41
41
99
41
41
99
41
41
110
44
42
110
44
42
99
41
41
124
100
97
215
203
201
124
100
97
133
86
79
118
44
46
118
44
46
168
148
146
215
203
201
168
148
146
131
47
45
131
47
45
133
86
79
215
203
201
168
148
146
133
86
79
131
47
45
133
86
79
215
203
201
168
148
146
131
47
45
131
47
45
168
148
146
215
203
201
133
86
79
118
44
46
118
44
46
102
49
76
133
86
79
118
44
46
118
44
46
118
44
46
99
41
41
124
100
97
168
148
146
168
148
146
99
41
41
99
41
41
86
39
39
99
41
41
86
39
39
86
39
39
76
37
36
86
39
39
76
37
36
76
37
36
76
37
36
63
35
34
63
35
34
63
35
34
76
37
36
76
37
36
76
37
36
76
37
36
86
39
39
86
39
39
86
39
39
86
39
39
99
41
41
99
41
41
99
41
41
99
41
41
110
44
42
99
41
41
102
49
76
168
148
146
215
203
201
168
148
146
118
44
46
118
44
46
118
44
46
168
148
146
215
203
201
168
148
146
118
44
46
102
49
76
168
148
146
215
203
201
168
148
146
131
47
45
118
44
46
124
100
97
215
203
201
168
148
146
118
44
46
168
148
146
215
203
201
168
148
146
118
44
46
118
44
46
131
47
45
118
44
46
133
86
79
110
44
42
110
44
42
99
41
41
133
86
79
168
148
146
215
203
201
168
148
146
86
39
39
99
41
41
86
39
39
99
41
41
86
39
39
86
39
39
86
39
39
76
37
36
76
37
36
76
37
36
76
37
36
76
37
36
63
35
34
76
37
36
76
37
36
76
37
36
76
37
36
86
39
39
86
39
39
86
39
39
86
39
39
86
39
39
99
41
41
86
39
39
99
41
41
99
41
41
99
41
41
133
86
79
168
148
146
168
148
146
215
203
201
168
148
146
102
49
76
118
44
46
168
148
146
102
49
76
215
203
201
215
203
201
118
44
46
168
148
146
168
148
146
215
203
201
168
148
146
118
44
46
118
44
46
215
203
201
215
203
201
102
49
76
131
47
45
215
203
201
215
203
201
102
49
76
118
44
46
118
44
46
133
86
79
102
49
76
133
86
79
118
44
46
99
41
41
86
39
39
168
148
146
124
100
97
215
203
201
168
148
146
76
37
36
86
39
39
86
39
39
86
39
39
86
39
39
86
39
39
86
39
39
76
37
36
76
37
36
76
37
36
63
35
34
63
35
34
63
35
34
63
35
34
63
35
34
76
37
36
76
37
36
76
37
36
76
37
36
86
39
39
86
39
39
86
39
39
86
39
39
99
41
41
99
41
41
99
41
41
102
49
76
168
148
146
124
100
97
168
148
146
215
203
201
168
148
146
131
47
45
131
47
45
168
148
146
102
49
76
215
203
201
215
203
201
168
148
146
102
49
76
215
203
201
215
203
201
133
86
79
131
47
45
102
49
76
215
203
201
215
203
201
102
49
76
102
49
76
215
203
201
215
203
201
118
44
46
118
44
46
133
86
79
215
203
201
215
203
201
124
100
97
118
44
46
118
44
46
168
148
146
124
100
97
168
148
146
215
203
201
168
148
146
86
39
39
99
41
41
86
39
39
86
39
39
86
39
39
86
39
39
76
37
36
76
37
36
76
37
36
76
37
36
76
37
36
63
35
34
63
35
34
76
37
36
76
37
36
76
37
36
76
37
36
76
37
36
86
39
39
76
37
36
86
39
39
86
39
39
99
41
41
86
39
39
86
39
39
86
39
39
124
100
97
124
100
97
124
100
97
168
148
146
215
203
201
102
49
76
102
49
76
99
41
41
124
100
97
118
44
46
168
148
146
215
203
201
102
49
76
102
49
76
168
148
146
168
148
146
102
49
76
102
49
76
133
86
79
215
203
201
133
86
79
118
44
46
102
49
76
168
148
146
215
203
201
102
49
76
118
44
46
102
49
76
215
203
201
168
148
146
102
49
76
110
44
42
124
100
97
124
100
97
124
100
97
168
148
146
215
203
201
74
86
128
110
44
42
86
39
39
86
39
39
86
39
39
76
37
36
76
37
36
76
37
36
76
37
36
76
37
36
63
35
34
76
37
36
63
35
34
63
35
34
63
35
34
63
35
34
76
37
36
76
37
36
76
37
36
76
37
36
76
37
36
86
39
39
76
37
36
86
39
39
86
39
39
86
39
39
168
148
146
124
100
97
102
49
76
50
33
32
168
148
146
215
203
201
124
100
97
118
44
46
124
100
97
124
100
97
133
86
79
168
148
146
168
148
146
118
44
46
168
148
146
215
203
201
168
148
146
118
44
46
118
44
46
168
148
146
215
203
201
133
86
79
131
47
45
102
49
76
168
148
146
215
203
201
133
86
79
110
44
42
133
86
79
215
203
201
168
148
146
110
44
42
168
148
146
124
100
97
102
49
76
63
35
34
124
100
97
215
203
201
124
100
97
86
39
39
86
39
39
86
39
39
76
37
36
86
39
39
76
37
36
76
37
36
76
37
36
76
37
36
63
35
34
76
37
36
63
35
34
63
35
34
63
35
34
76
37
36
63
35
34
63
35
34
76
37
36
86
39
39
76
37
36
76
37
36
86
39
39
86
39
39
86
39
39
124
100
97
215
203
201
133
86
79
99
41
41
133
86
79
215
203
201
215
203
201
168
148
146
133
86
79
215
203
201
168
148
146
102
49
76
168
148
146
133
86
79
133
86
79
215
203
201
215
203
201
215
203
201
118
44
46
133
86
79
215
203
201
215
203
201
168
148
146
118
44
46
118
44
46
99
41
41
168
148
146
215
203
201
168
148
146
168
148
146
215
203
201
133
86
79
124
100
97
215
203
201
133
86
79
99
41
41
133
86
79
215
203
201
215
203
201
168
148
146
133
86
79
76
37
36
86
39
39
86
39
39
76
37
36
86
39
39
76
37
36
76
37
36
63
35
34
63
35
34
63
35
34
63
35
34
63
35
34
63
35
34
63
35
34
76
37
36
63
35
34
76
37
36
76
37
36
76
37
36
86
39
39
76
37
36
86
39
39
99
41
41
99
41
41
76
37
36
76
37
36
76
37
36
86
39
39
99
41
41
86
39
39
99
41
41
118
44
46
118
44
46
118
44
46
110
44
42
102
49
76
118
44
46
118
44
46
99
41
41
118
44
46
102
49
76
118
44
46
102
49
76
118
44
46
102
49
76
99
41
41
118
44
46
118
44
46
118
44
46
110
44
42
102
49
76
133
86
79
133
86
79
102
49
76
99
41
41
110
44
42
99
41
41
86
39
39
86
39
39
86
39
39
76
37
36
63
35
34
63
35
34
86
39
39
86
39
39
76
37
36
86
39
39
76
37
36
76
37
36
76
37
36
76
37
36
76
37
36
63
35
34
63
35
34
63
35
34
63
35
34
63
35
34
63
35
34
63
35
34
76
37
36
63
35
34
76
37
36
76
37
36
76
37
36
86
39
39
76
37
36
86
39
39
86
39
39
86
39
39
86
39
39
99
41
41
99
41
41
99
41
41
99
41
41
99
41
41
99
41
41
99
41
41
99
41
41
99
41
41
110
44
42
99
41
41
99
41
41
110
44
42
99
41
41
118
44
46
118
44
46
118
44
46
118
44
46
118
44
46
118
44
46
118
44
46
118
44
46
110
44
42
110
44
42
110
44
42
99
41
41
99
41
41
110
44
42
110
44
42
99
41
41
99
41
41
99
41
41
99
41
41
99
41
41
86
39
39
76
37
36
99
41
41
86
39
39
76
37
36
86
39
39
76
37
36
76
37
36
63
35
34
76
37
36
63
35
34
63
35
34
63
35
34
63
35
34
63
35
34
50
33
32
63
35
34
63
35
34
63
35
34
63
35
34
63
35
34
63
35
34
76
37
36
76
37
36
76
37
36
76
37
36
76
37
36
76
37
36
86
39
39
86
39
39
86
39
39
86
39
39
99
41
41
86
39
39
99
41
41
86
39
39
99
41
41
99
41
41
99
41
41
118
44
46
99
41
41
110
44
42
99
41
41
118
44
46
99
41
41
99
41
41
99
41
41
118
44
46
110
44
42
99
41
41
99
41
41
110
44
42
99
41
41
110
44
42
99
41
41
99
41
41
99
41
41
99
41
41
99
41
41
86
39
39
99
41
41
99
41
41
86
39
39
99
41
41
86
39
39
86
39
39
86
39
39
86
39
39
76
37
36
76
37
36
76
37
36
76
37
36
63
35
34
76
37
36
63
35
34
63
35
34
63
35
34
50
33
32
63
35
34
63
35
34
50
33
32
63
35
34
63
35
34
63
35
34
76
37
36
63
35
34
76
37
36
63
35
34
86
39
39
76
37
36
76
37
36
76
37
36
86
39
39
86
39
39
86
39
39
99
41
41
86
39
39
99
41
41
86
39
39
99
41
41
99
41
41
99
41
41
99
41
41
99
41
41
99
41
41
99
41
41
99
41
41
99
41
41
118
44
46
99
41
41
118
44
46
99
41
41
99
41
41
99
41
41
99
41
41
99
41
41
99
41
41
99
41
41
99
41
41
99
41
41
99
41
41
99
41
41
99
41
41
99
41
41
99
41
41
86
39
39
76
37
36
86
39
39
76
37
36
86
39
39
76
37
36
76
37
36
76
37
36
76
37
36
76
37
36
76
37
36
76
37
36
63
35
34
63
35
34
63
35
34
63
35
34
63
35
34
50
33
32
63
35
34
50
33
32
63
35
34
63
35
34
63
35
34
63
35
34
63
35
34
76
37
36
63
35
34
76
37
36
76
37
36
76
37
36
86
39
39
76
37
36
86
39
39
76
37
36
86
39
39
86
39
39
86
39
39
86
39
39
99
41
41
86
39
39
99
41
41
99
41
41
99
41
41
99
41
41
99
41
41
99
41
41
99
41
41
99
41
41
99
41
41
99
41
41
99
41
41
99
41
41
99
41
41
99
41
41
99
41
41
99
41
41
99
41
41
99
41
41
99
41
41
99
41
41
99
41
41
86
39
39
86
39
39
99
41
41
86
39
39
86
39
39
86
39
39
86
39
39
86
39
39
86
39
39
86
39
39
76
37
36
76
37
36
76
37
36
63
35
34
76
37
36
63
35
34
63
35
34
63
35
34
50
33
32
63
35
34
50
33
32
50
33
32
50
33
32
63
35
34
63
35
34
63
35
34
63
35
34
63
35
34
63
35
34
76
37
36
63
35
34
76
37
36
76
37
36
76
37
36
86
39
39
76
37
36
86
39
39
86
39
39
86
39
39
86
39
39
86
39
39
86
39
39
99
41
41
86
39
39
99
41
41
99
41
41
99
41
41
99
41
41
86
39
39
99
41
41
99
41
41
99
41
41
86
39
39
99
41
41
99
41
41
99
41
41
99
41
41
99
41
41
99
41
41
99
41
41
99
41
41
86
39
39
86
39
39
86
39
39
99
41
41
86
39
39
86
39
39
86
39
39
86
39
39
86
39
39
76
37
36
86
39
39
76
37
36
76
37
36
76
37
36
63
35
34
63
35
34
63
35
34
63
35
34
63
35
34
63
35
34
63
35
34
50
33
32
63
35
34
50
33
32
50
33
32
50
33
32
50
33
32
50
33
32
63
35
34
63
35
34
63
35
34
63
35
34
63
35
34
63
35
34
76
37
36
63
35
34
76
37
36
76
37
36
76
37
36
76
37
36
86
39
39
86
39
39
86
39
39
86
39
39
86
39
39
86
39
39
86
39
39
99
41
41
86
39
39
99
41
41
99
41
41
86
39
39
99
41
41
86
39
39
99
41
41
99
41
41
99
41
41
86
39
39
99
41
41
99
41
41
86
39
39
99
41
41
86
39
39
99
41
41
99
41
41
86
39
39
86
39
39
86
39
39
86
39
39
86
39
39
86
39
39
76
37
36
76
37
36
76
37
36
76
37
36
76
37
36
76
37
36
76
37
36
76
37
36
76
37
36
63
35
34
63
35
34
63
35
34
63
35
34
63
35
34
50
33
32
50
33
32
50
33
32
50
33
32
50
33
32
50
33
32
63
35
34
50
33
32
63
35
34
63
35
34
63
35
34
63
35
34
63
35
34
63
35
34
76
37
36
76
37
36
76
37
36
76
37
36
76
37
36
86
39
39
76
37
36
86
39
39
86
39
39
86
39
39
86
39
39
99
41
41
86
39
39
86
39
39
99
41
41
86
39
39
99
41
41
86
39
39
99
41
41
86
39
39
86
39
39
86
39
39
99
41
41
86
39
39
86
39
39
86
39
39
86
39
39
86
39
39
99
41
41
86
39
39
86
39
39
86
39
39
86
39
39
86
39
39
86
39
39
86
39
39
76
37
36
76
37
36
76
37
36
76
37
36
76
37
36
63
35
34
76
37
36
63
35
34
63
35
34
63
35
34
63
35
34
63
35
34
50
33
32
50
33
32
50
33
32
50
33
32
50
33
32
50
33
32
50
33
32
50
33
32
50
33
32
50
33
32
50
33
32
63
35
34
63
35
34
63
35
34
63
35
34
63
35
34
63
35
34
63
35
34
76
37
36
76
37
36
76
37
36
76
37
36
76
37
36
76
37
36
76
37
36
76
37
36
86
39
39
76
37
36
86
39
39
76
37
36
86
39
39
86
39
39
86
39
39
86
39
39
86
39
39
99
41
41
86
39
39
86
39
39
86
39
39
86
39
39
86
39
39
86
39
39
86
39
39
76
37
36
86
39
39
86
39
39
86
39
39
76
37
36
86
39
39
76
37
36
76
37
36
76
37
36
76
37
36
76
37
36
76
37
36
63
35
34
76
37
36
63
35
34
63
35
34
63
35
34
63
35
34
63
35
34
63
35
34
50
33
32
63
35
34
63
35
34
50
33
32
50
33
32
50
33
32
50
33
32
50
33
32
50
33
32
63
35
34
50
33
32
63
35
34
50
33
32
63
35
34
63
35
34
63
35
34
63
35
34
76
37
36
63
35
34
76
37
36
63
35
34
76
37
36
76
37
36
76
37
36
76
37
36
76
37
36
86
39
39
76
37
36
86
39
39
86
39
39
76
37
36
86
39
39
76
37
36
86
39
39
86
39
39
86
39
39
76
37
36
86
39
39
86
39
39
86
39
39
86
39
39
86
39
39
86
39
39
86
39
39
86
39
39
76
37
36
86
39
39
76
37
36
76
37
36
76
37
36
76
37
36
86
39
39
76
37
36
76
37
36
76
37
36
76
37
36
76
37
36
63
35
34
63
35
34
63
35
34
63
35
34
63
35
34
63
35
34
63
35
34
50
33
32
50
33
32
50
33
32
50
33
32
50
33
32
50
33
32
50
33
32
50
33
32
50
33
32
50
33
32
50
33
32
50
33
32
50
33
32
63
35
34
63
35
34
63
35
34
63
35
34
63
35
34
63
35
34
63
35
34
63
35
34
63
35
34
76
37
36
76
37
36
76
37
36
76
37
36
76
37
36
76
37
36
76
37
36
76
37
36
76
37
36
86
39
39
76
37
36
86
39
39
76
37
36
86
39
39
86
39
39
76
37
36
86
39
39
76
37
36
86
39
39
86
39
39
76
37
36
76
37
36
86
39
39
76
37
36
76
37
36
76
37
36
76
37
36
76
37
36
76
37
36
76
37
36
63
35
34
76
37
36
63
35
34
63
35
34
63
35
34
76
37
36
63
35
34
63
35
34
63
35
34
63
35
34
50
33
32
63
35
34
50
33
32
63
35
34
50
33
32
50
33
32
50
33
32
50
33
32
50
33
32
50
33
32
50
33
32
50
33
32
50
33
32
50
33
32
50
33
32
50
33
32
63
35
34
50
33
32
63
35
34
63
35
34
63
35
34
63
35
34
76
37
36
63
35
34
76
37
36
63
35
34
76
37
36
63
35
34
76
37
36
76
37
36
76
37
36
76
37
36
76
37
36
76
37
36
76
37
36
76
37
36
86
39
39
76
37
36
76
37
36
86
39
39
76
37
36
86
39
39
76
37
36
76
37
36
76
37
36
76
37
36
76
37
36
76
37
36
76
37
36
76
37
36
76
37
36
76
37
36
76
37
36
76
37
36
63
35
34
63
35
34
76
37
36
63
35
34
63
35
34
63
35
34
63
35
34
63
35
34
63
35
34
50
33
32
50
33
32
50
33
32
50
33
32
50
33
32
50
33
32
50
33
32
50
33
32
50
33
32
50
33
32
50
33
32
50
33
32
50
33
32
50
33
32
50
33
32
50
33
32
50
33
32
63
35
34
50
33
32
63
35
34
63
35
34
63
35
34
63
35
34
63
35
34
63
35
34
63
35
34
63
35
34
76
37
36
63
35
34
63
35
34
76
37
36
76
37
36
76
37
36
76
37
36
76
37
36
76
37
36
76
37
36
76
37
36
76
37
36
76
37
36
76
37
36
76
37
36
76
37
36
76
37
36
86
39
39
76
37
36
76
37
36
76
37
36
76
37
36
76
37
36
76
37
36
76
37
36
76
37
36
63
35
34
76
37
36
63
35
34
63
35
34
76
37
36
63
35
34
63
35
34
63
35
34
63
35
34
63
35
34
50
33
32
63
35
34
50
33
32
50
33
32
50
33
32
50
33
32
50
33
32
50
33
32
50
33
32
50
33
32
